X:1
T:False, False Hae Ye Been To Me, My Love
M:4/4
L:1/4
K:C
 F4| E3 C| D2 F G| A2 D- C| A,3 A,-| F2 F F| G2 F G| A2| z2 D E| F2 E C|\
 D2 F G| A2 D C| A,2 F G| A2 A c| A/2- G3/2 F/2- E3/2| D2 z2|

